humanity-icon-theme/Humanity/apps/16/application-community.svg

<?xml version="1.0" encoding="UTF-8" standalone="no"?>
<!-- Created with Inkscape (http://www.inkscape.org/) -->

<svg
   xmlns:svg="http://www.w3.org/2000/svg"
   xmlns="http://www.w3.org/2000/svg"
   xmlns:xlink="http://www.w3.org/1999/xlink"
   version="1.0"
   width="16"
   height="16"
   id="svg1">
  <defs
     id="defs3">
    <linearGradient
       id="linearGradient2780">
      <stop
         id="stop2782"
         style="stop-color:white;stop-opacity:1"
         offset="0" />
      <stop
         id="stop2784"
         style="stop-color:white;stop-opacity:0"
         offset="1" />
    </linearGradient>
    <linearGradient
       id="linearGradient6621">
      <stop
         id="stop6622"
         style="stop-color:#f5a108;stop-opacity:0"
         offset="0" />
      <stop
         id="stop6623"
         style="stop-color:#fefdc3;stop-opacity:0.74251497"
         offset="1" />
    </linearGradient>
    <linearGradient
       x1="22.819513"
       y1="28.829224"
       x2="12.849945"
       y2="12.239423"
       id="linearGradient7881"
       xlink:href="#linearGradient6621"
       gradientUnits="userSpaceOnUse"
       gradientTransform="matrix(0.36634562,0,0,0.18487721,0.09201511,0.98373703)" />
    <linearGradient
       x1="24"
       y1="5.0793009"
       x2="24"
       y2="41.0793"
       id="linearGradient2786"
       xlink:href="#linearGradient2780"
       gradientUnits="userSpaceOnUse"
       gradientTransform="matrix(0.31609932,0,0,0.30746702,0.37420195,0.8554193)" />
    <linearGradient
       id="linearGradient3242">
      <stop
         id="stop3244"
         style="stop-color:#f8b17e;stop-opacity:1"
         offset="0" />
      <stop
         id="stop3246"
         style="stop-color:#e35d4f;stop-opacity:1"
         offset="0.31209752" />
      <stop
         id="stop3248"
         style="stop-color:#c6262e;stop-opacity:1"
         offset="0.57054454" />
      <stop
         id="stop3250"
         style="stop-color:#690b54;stop-opacity:1"
         offset="1" />
    </linearGradient>
    <linearGradient
       id="linearGradient2490">
      <stop
         id="stop2492"
         style="stop-color:#791235;stop-opacity:1"
         offset="0" />
      <stop
         id="stop2494"
         style="stop-color:#dd3b27;stop-opacity:1"
         offset="1" />
    </linearGradient>
    <linearGradient
       x1="24"
       y1="6"
       x2="24"
       y2="51"
       id="linearGradient3853"
       xlink:href="#linearGradient3242"
       gradientUnits="userSpaceOnUse"
       gradientTransform="matrix(0.34580644,0,0,0.33925848,-0.34018139,-0.59700218)" />
    <linearGradient
       x1="17"
       y1="45"
       x2="17"
       y2="6"
       id="linearGradient3861"
       xlink:href="#linearGradient2490"
       gradientUnits="userSpaceOnUse"
       gradientTransform="matrix(0.34580644,0,0,0.33925848,-0.34018139,-0.59700218)" />
  </defs>
  <path
     d="M 4.5140562,2.2867658 C 2.657805,2.1971654 1.7930306,3.3665529 1.3252546,4.4789787 0.86104569,5.9438985 1.5172417,8.7107873 4.7329124,8.500294 6.567115,8.500294 7.2961449,6.6556822 8.2614763,6.1768313 9.1387813,5.851533 9.2078291,5.822419 10.134716,5.822419 c 1.288084,0 3.617431,-0.9141615 3.617432,-1.8212231 C 13.35622,3.2733341 12.305088,1.9771251 10.373564,2.1980488 9.1440706,2.3383772 7.980897,3.200228 7.6770592,3.6290877 6.9327592,2.9853054 5.9824,2.2867658 4.5140562,2.2867658 z"
     id="path7876"
     style="fill:url(#linearGradient7881);fill-opacity:1;fill-rule:evenodd;stroke:none" />
  <path
     d="M 7.9026548,2.8629634 C 11.114738,-0.28698441 15.528893,2.6163356 15.499858,5.603663 15.473313,8.3346001 13.350893,9.6424802 8.0187984,14.5 2.4377011,9.9811165 0.47128043,8.9390447 0.50031614,5.6988794 0.52935193,2.3448169 4.3082404,-0.17242286 7.9026548,2.8629634 z"
     id="path920"
     style="fill:url(#linearGradient3853);fill-opacity:1;fill-rule:evenodd;stroke:url(#linearGradient3861);stroke-width:0.99999982;stroke-linecap:butt;stroke-linejoin:miter;stroke-miterlimit:4;stroke-opacity:1;stroke-dasharray:none" />
  <path
     d="M 5.1552041,2.5176629 C 4.8920387,2.4957498 4.6296891,2.5012872 4.3847121,2.5368796 2.7500963,2.7743711 1.5155137,4.2253139 1.5003057,5.967059 1.4876573,7.3664765 1.8658439,8.2129065 2.9128746,9.2915459 3.9219501,10.331083 5.6043026,11.576456 8.0099764,13.5 10.312094,11.429674 11.968179,10.043231 12.998418,8.9552533 14.067537,7.8262189 14.488611,7.0311286 14.49989,5.8805834 14.511522,4.6945314 13.596184,3.4492819 12.336586,2.8635633 11.076987,2.2778448 9.5303599,2.3076565 8.1581476,3.6418392 A 0.35451478,0.3448334 0 0 1 7.6839993,3.6610558 C 6.8064022,2.9262743 5.9447009,2.5834023 5.1552041,2.5176629 z"
     id="path2778"
     style="opacity:0.4;fill:none;stroke:url(#linearGradient2786);stroke-width:0.99999988;stroke-linecap:butt;stroke-linejoin:miter;stroke-miterlimit:4;stroke-opacity:1;stroke-dasharray:none" />
</svg>

<?xml version="1.0" encoding="UTF-8" standalone="no"?>
<!-- Created with Inkscape (http://www.inkscape.org/) -->
<svg id="svg1" xmlns="http://www.w3.org/2000/svg" height="16" width="16" version="1.0" xmlns:xlink="http://www.w3.org/1999/xlink">
 <defs id="defs3">
  <linearGradient id="linearGradient7881" y2="12.239" gradientUnits="userSpaceOnUse" x2="12.85" gradientTransform="matrix(.36635 0 0 .18488 .092015 .98374)" y1="28.829" x1="22.82">
   <stop id="stop6622" style="stop-color:#f5a108;stop-opacity:0" offset="0"/>
   <stop id="stop6623" style="stop-color:#fefdc3;stop-opacity:.74251" offset="1"/>
  </linearGradient>
  <linearGradient id="linearGradient2786" y2="41.079" gradientUnits="userSpaceOnUse" x2="24" gradientTransform="matrix(.31610 0 0 .30747 .37420 .85542)" y1="5.0793" x1="24">
   <stop id="stop2782" style="stop-color:#fff" offset="0"/>
   <stop id="stop2784" style="stop-color:#fff;stop-opacity:0" offset="1"/>
  </linearGradient>
  <linearGradient id="linearGradient3853" y2="51" gradientUnits="userSpaceOnUse" x2="24" gradientTransform="matrix(.34581 0 0 .33926 -.34018 -0.597)" y1="6" x1="24">
   <stop id="stop3244" style="stop-color:#f8b17e" offset="0"/>
   <stop id="stop3246" style="stop-color:#e35d4f" offset=".31210"/>
   <stop id="stop3248" style="stop-color:#c6262e" offset=".57054"/>
   <stop id="stop3250" style="stop-color:#690b54" offset="1"/>
  </linearGradient>
  <linearGradient id="linearGradient3861" y2="6" gradientUnits="userSpaceOnUse" x2="17" gradientTransform="matrix(.34581 0 0 .33926 -.34018 -0.597)" y1="45" x1="17">
   <stop id="stop2492" style="stop-color:#791235" offset="0"/>
   <stop id="stop2494" style="stop-color:#dd3b27" offset="1"/>
  </linearGradient>
 </defs>
 <path id="path7876" style="fill:url(#linearGradient7881);fill-rule:evenodd" d="m4.5141 2.2868c-1.8563-0.0896-2.7211 1.0798-3.1888 2.1922-0.46425 1.4649 0.1919 4.2318 3.4076 4.0213 1.8342 0 2.5632-1.8446 3.5286-2.3235 0.8773-0.3253 0.9463-0.3544 1.8735-0.3544 1.2881 0 3.6174-0.91416 3.6174-1.8212-0.396-0.7279-1.447-2.0241-3.378-1.8032-1.2299 0.1404-2.3931 1.0022-2.6969 1.4311-0.7443-0.6438-1.6947-1.3423-3.163-1.3423z"/>
 <path id="path920" style="fill-rule:evenodd;stroke:url(#linearGradient3861);fill:url(#linearGradient3853)" d="m7.9027 2.863c3.2123-3.15 7.6263-0.2467 7.5973 2.7407-0.027 2.7309-2.149 4.0388-7.4812 8.8963-5.5811-4.5189-7.5475-5.561-7.5185-8.8011 0.02905-3.3541 3.8079-5.8713 7.4024-2.8359z"/>
 <path id="path2778" style="opacity:.4;stroke:url(#linearGradient2786);fill:none" d="m5.1552 2.5177c-0.2632-0.022-0.5255-0.0164-0.7705 0.0192-1.6346 0.2375-2.8692 1.6884-2.8844 3.4302-0.0126 1.3994 0.3655 2.2458 1.4126 3.3244 1.0091 1.0395 2.6914 2.2845 5.0971 4.2085 2.302-2.07 3.958-3.457 4.988-4.5447 1.07-1.1291 1.491-1.9242 1.502-3.0747 0.012-1.1861-0.904-2.4313-2.163-3.017-1.26-0.5858-2.8066-0.5559-4.1789 0.7782a0.35451 0.34483 0 0 1 -0.4741 0.0193c-0.8776-0.7348-1.7393-1.0777-2.5288-1.1434z"/>
</svg>
